X: 24018
T: Logie Bridge
R: reel
M: 4/4
K: Amajor
efed ca A2|e2ed cdef|=gage f3d|=G2 dG Bc d2|
efed ca A2|e2ed cdef|=gfed B3A|=G2 dG Bc d2||
c2cd eAAc|efed cdef|=gage f3d|=G2 dG Bc d2|
c2cd eAAc|efed cdef|=gfed B3A|=G2 dG Bc d2|
A2 e2 cd e2|A2 ed cdea|A2 a2 =gede|B=Gdc Bc d2|
A2 ed cd e2|Aaed cdef|=gfed B3A|=G2 dG Bc d2|
e2 cd ea A2|efed cd a2|=g2 ae gedB|=G2 dG Bc d2|
e2 fd ed c2|Aaed cdef|=gfed B3A|=G2 dG Bc d2||

